X:1
T:Title
%%score 1 2 3
L:1/8
M:3/2
K:C
V:1 treble nm="Part_1"
V:2 treble-8 nm="Part_2"
V:3 bass nm="Part_3"
V:1
 z4 z4 D4 | F4 F6 E2 | D4 z4 C4 | D4 E6 D2 | E4 C6 B,2 | A,4 z4 C2 D2 | F4 F6 E2 | F2 E2 D6 C2 | %8
 D2 E2 F2 G4 F2 | DC D2 E3 D C3 B, | D4 z4 z4 | C8 D4 | F4 F4 G4 | F4 E2 G4 F2 | %14
 D2 E2 F3 D C2 B,2 | D4 z4 D4 | D2 E2 G6 F2 | F4 E6 D2 | F2 G2 A6 G2 | G4 F6 E2 | E4 D6 C2 | %21
 E4 z4 z4 | D8 A4 | A4 G4 A2 F2 | E4 z4 F2 G2 | A4 A6 G2 | G4 F2 E4 D2 | D4 C4 D2 E2 | %28
 F4 F2 D2 E2 F2 | G4 F2 A4 G2 | F2 E2 G2 F2 D2 E2 | D4 C4 D2 B,2 | ^C12 | D12 || D8 F4 | F4 G8 | %36
 F6 D2 F4 | E6 C2 D2 E2 | F2 G2 F2 D2 F2 E2 | D4 C6 B,2 | D12 || z4 z4 D4 | F4 F4 F4 | %43
 F4 F4 F2 F2 | F4 F4 E4 | F4 G4 G4 | F4 G2 _B2 A2 F2 | G2 A4 F2 E2 D2 | F4 z4 D4 | F4 F6 F2 | %50
 F4 F4 G4 | F6 D2 F4 | E6 C2 D4 | E2 F2 E2 D2 C4 | D12 |] %55
V:2
 z4 z4 D4 | D8 F4 | G4 A8 | F4 C6 B,2 | A,6 B,2 C4 | D4 A8 | F4 D4 A2 G2 | F4 G4 F2 E2 | %8
 D6 C2 E2 F2 | G2 A4 G2 E4 | D12 | A8 G4 | D4 D4 C4 | D4 G6 F2 | F6 E2 E4 | D8 G4 | G2 A2 _B6 A2 | %17
 A4 G8 | F8 D4 | E4 A8 | G4 F8 | E12 | G8 D4 | F4 G4 F2 G2 | A8 D4- | D4 F8 | G4 A6 D2 | %27
 F4 E4 D4- | D4 F4 G4 | E4 D8 | A4 G8 | F4 E6 D2 | E12 | D12 || A8 c4 | c4 d8 | c6 A2 c4 | %37
 B6 G2 A2 B2 | c2 d2 c2 A2 c2 B2 | A4 G6 F2 | A12 || z4 z4 A4 | c4 c4 c4 | c4 c4 c2 c2 | c4 c4 B4 | %45
 c4 d4 d4 | c4 d2 f2 e2 c2 | d2 e4 c2 B2 A2 | c4 z4 A4 | c4 c6 c2 | c4 c4 d4 | c6 A2 c4 | %52
 B6 G2 A4 | B2 c2 B2 A2 G4 | A12 |] %55
V:3
 z4 z4 A,4 | A,8 A,4 | _B,3 A, F,6 E,2 | D,4 G,4 A,2 G,2 | A,8 G,4 | F,4 D,4 A,,4 | D,8 D,4 | %7
 D,4 z4 D,2 E,2 | F,2 A,4 E,2 G,2 D,2 | D,2 A,,4 A,,2 A,,4 | A,12 | A,,8 z4 | A,8 E,4 | F,4 C,8 | %14
 D,8 A,,4 | A,8 _B,4 | _B,4 G,8 | D,4 E,4 C,4 | z4 D,4 F,4 | G,4 D,8 | G,,4 D,8 | A,,12 | G,,8 z4 | %23
 D,4 E,4 D,4 | A,,8 A,4- | A,4 D,8 | E,4 A,,8 | D,4 A,,4 A,4- | A,4 D,4 C,4 | G,4 A,8 | %30
 D,4 E,4 z2 C,2 | D,4 A,,6 A,,2 | A,,12 | A,12 || D,4 F,8 | A,4 _B,8 | A,6 G,2 F,4 | %37
 G,4 E,4 F,2 G,2 | A,2 _B,2 A,6 G,2 | F,4 E,8 | D,12 || z4 z4 D,4 | A,8 F,4 | F,4 A,4 A,2 A,2 | %44
 A,4 F,4 G,4 | A,4 G,4 _B,4 | A,4 _B,4 C2 A,2 | _B,2 C2 A,4 G,4 | F,4 z4 F,4 | F,4 A,6 A,2 | %50
 A,4 F,4 _B,4 | A,6 G,2 F,4 | G,4 E,4 F,4 | G,2 A,4 F,2 E,4 | D,12 |] %55

